assets/douban/mono.svg

<svg viewBox="0 0 24 24" xmlns="http://www.w3.org/2000/svg"><path d="m.51 3.06h22.98v-2.305h-22.98zm20.976 2.537v9.608h-2.137l-1.669 5.76h6.32v2.28h-24v-2.28h6.32l-1.67-5.76h-2.135v-9.608h18.972zm-5.066 9.608h-8.84l1.67 5.76h5.501l1.67-5.76zm1.947-7.305h-12.733v5.025h12.733z"/></svg>

<svg xmlns="http://www.w3.org/2000/svg" viewBox="0 0 24 24"><path d="M.51 3.06h22.98V.755H.51zm20.976 2.537v9.608h-2.137l-1.669 5.76H24v2.28H0v-2.28h6.32l-1.67-5.76H2.515V5.597h18.972zm-5.066 9.608H7.58l1.67 5.76h5.501zM18.367 7.9H5.634v5.025h12.733z"/></svg>
